X: 131873
T: Michael Hurley's
S: "The Killavil Sessions" (Ceoltoiri Coleman)
N: Two-part relative of "Nine Points of Roguery"
L: 1/8
M: 4/4
R: reel
K: G
G3B cABA | GBdg eg d2 | GABG A2 Bd | eAAA eAAA |
G3B cABA | GBdg eg d2 | G3B A2 Bc |1 d2 cA BGGD :|2\
d2 cA BGBd ||
g3e fedf | efge dcBA | GABG A2 Bd | eAAA eAAA |
g2 eg fedf | efge dcBA | G3B A2 Bc | d2 cA BGBd |
dgge f4 | efge dcBA | GABG A2 Bd | eAAA eAAA | 
g3e f3d | efge dcBA | G3B A2 Bc | dBcA BG G2 |]
